icons/breezeLight/actions/24/voronoi-path.svg

<svg viewBox="0 0 24 24" xmlns="http://www.w3.org/2000/svg"><path d="m19 4c0 3.168834-2.111019 6.168312-5 7.150391v1.046875c3.448101-1.000263 6-4.4714572 6-8.197266zm-11 1-2 1.5 2 1.5v-1h5v-1h-5zm2 6.802734c-3.4481004 1.000268-6 4.471476-6 8.197266h1c0-3.168828 2.1110194-6.16831 5-7.150391zm6 4.197266v1h-5v1h5v1l2-1.5z" fill="#4d4d4d"/><path d="m12 9.5a2.5 2.5 0 0 0 -2.5 2.5 2.5 2.5 0 0 0 2.5 2.5 2.5 2.5 0 0 0 2.5-2.5 2.5 2.5 0 0 0 -2.5-2.5zm0 1.076172a1.5 1.4248044 0 0 1 1.5 1.423828 1.5 1.4248044 0 0 1 -1.5 1.423828 1.5 1.4248044 0 0 1 -1.5-1.423828 1.5 1.4248044 0 0 1 1.5-1.423828z" fill="#3daee9"/></svg>

<?xml version="1.0" encoding="UTF-8" standalone="no"?>
<svg
   xmlns:dc="http://purl.org/dc/elements/1.1/"
   xmlns:cc="http://creativecommons.org/ns#"
   xmlns:rdf="http://www.w3.org/1999/02/22-rdf-syntax-ns#"
   xmlns:svg="http://www.w3.org/2000/svg"
   xmlns="http://www.w3.org/2000/svg"
   xmlns:sodipodi="http://sodipodi.sourceforge.net/DTD/sodipodi-0.dtd"
   xmlns:inkscape="http://www.inkscape.org/namespaces/inkscape"
   viewBox="0 0 24 24"
   version="1.1"
   id="svg8"
   sodipodi:docname="path-reverse.svg"
   inkscape:version="0.92.4 (5da689c313, 2019-01-14)">
  <metadata
     id="metadata12">
    <rdf:RDF>
      <cc:Work
         rdf:about="">
        <dc:format>image/svg+xml</dc:format>
        <dc:type
           rdf:resource="http://purl.org/dc/dcmitype/StillImage" />
        <dc:title></dc:title>
      </cc:Work>
    </rdf:RDF>
  </metadata>
  <sodipodi:namedview
     pagecolor="#ffffff"
     bordercolor="#666666"
     borderopacity="1"
     objecttolerance="10"
     gridtolerance="10"
     guidetolerance="10"
     inkscape:pageopacity="0"
     inkscape:pageshadow="2"
     inkscape:window-width="1133"
     inkscape:window-height="860"
     id="namedview10"
     showgrid="true"
     inkscape:snap-object-midpoints="true"
     inkscape:zoom="27.812867"
     inkscape:cx="8.186914"
     inkscape:cy="9.0728209"
     inkscape:window-x="1987"
     inkscape:window-y="811"
     inkscape:window-maximized="0"
     inkscape:current-layer="svg8">
    <inkscape:grid
       type="xygrid"
       id="grid822" />
  </sodipodi:namedview>
  <defs
     id="defs3051">
    <style
       type="text/css"
       id="current-color-scheme">
      .ColorScheme-Text {
        color:#4d4d4d;
      }
      .ColorScheme-Highlight {
        color:#3daee9;
      }
      </style>
  </defs>
  <path
     style="fill:#4d4d4d;fill-opacity:1;stroke:none"
     d="M 19 4 C 19 7.168834 16.888981 10.168312 14 11.150391 L 14 12.197266 C 17.448101 11.197003 20 7.7258088 20 4 L 19 4 z M 8 5 L 6 6.5 L 8 8 L 8 7 L 13 7 L 13 6 L 8 6 L 8 5 z M 10 11.802734 C 6.5518996 12.803002 4 16.27421 4 20 L 5 20 C 5 16.831172 7.1110194 13.83169 10 12.849609 L 10 11.802734 z M 16 16 L 16 17 L 11 17 L 11 18 L 16 18 L 16 19 L 18 17.5 L 16 16 z "
     id="path4" />
  <path
     style="fill:#3daee9;fill-opacity:1;stroke:none;stroke-opacity:1"
     d="M 12 9.5 A 2.5 2.5 0 0 0 9.5 12 A 2.5 2.5 0 0 0 12 14.5 A 2.5 2.5 0 0 0 14.5 12 A 2.5 2.5 0 0 0 12 9.5 z M 12 10.576172 A 1.5 1.4248044 0 0 1 13.5 12 A 1.5 1.4248044 0 0 1 12 13.423828 A 1.5 1.4248044 0 0 1 10.5 12 A 1.5 1.4248044 0 0 1 12 10.576172 z "
     id="path830" />
</svg>
